X:1
%
T:Waltz [10]
M:3/4
L:1/8
S:The mid-19th cent. music manuscript collection of James Goodman (County Cork, p. 108)
F: http://goodman.itma.ie/volume-one#?c=0&m=0&s=0&cv=111&z=671.8185%2C1162.7365%2C7374.2874%2C4466.6667
Z:AK/Fiddler’s Companion
K:D
f2 (fg) (fe)|d2 F2A2|c2F2A2|d2F2A2|
f2 (fgfe)|d2F2A2|c2 ABcA|d6:|
A2 (ABcd)|e2d2c2|d2 (defg)|a2g2f2|
b4 ab|a2f2a2|g2f2e2|d6|
A2 (ABcd)|e2d2c2|d2 (defg)|a2g2f2|
b4 ab|a2f2a2|g2f2e2|d6||

